X: 41355
T: Turnpike Warrior
R: reel
M: 4/4
K: Dmajor
D2DE FAAF|~A3F ABde|ef~f2 de~e2|dBAF EFDA,|
D2DE FAAF|~A3F ABde|f2af defe|dBAF ABd2:|
|:~f3a ~e3f|dBAF EFDB|~A3B defd|egfd edBd|
~f3a ~e3f|dBAF EFDz|D2DE FAAF|ABBA B2z2:|

